!!!!SEGMENT: pl-cz--iii-555--001-007_raszek-waclaw--requiem-pleni-sunt.krn
!!!cenid: 17xx:1086
!!!COM: Raszek, Wacław
!!!COM-rismid: pe30020314
!!!CDT: <1848->1848
!!!CNT:
!!!OPR: Requiem
!!!OTL: Pleni sunt
!!!OMV: 007
!!!PDT:
!!!AGN: Sacred; Requiem
!!!SMS-siglum: PL-CZ
!!!SMS-shelfmark: III-555
!!!SMS-shelfwork: 001-007 M
!!!SMS-variant:
!!!SMS-altvar:
!!!NIFC-rismid: 300001055
!!!system-decoration: [(s1,s2,s3)][(s4,s5)][(s6,s7,s8,s9)]
!!!AIN: 1 alto 1 bass 2 clars 2 empty 1 fagot 1 tenor 1 vox
!!!key:
**kern	**text	**kern	**text	**kern	**text	**kern	**text	**kern	**kern	**kern	**kern	**kern
*part9	*part9	*part8	*part8	*part7	*part7	*part6	*part6	*part5	*part4	*part3	*part2	*part1
*staff9	*staff9	*staff8	*staff8	*staff7	*staff7	*staff6	*staff6	*staff5	*staff4	*staff3	*staff2	*staff1
*Ibass	*	*Itenor	*	*Ialto	*	*Ivox	*	*Iempty	*Iempty	*Ifagot	*Iclars	*Iclars
*I"Basso.	*	*I"Tenore.	*	*I"Alto.	*	*I"Canto.	*	*I"Corno in E♭	*I"Corno in E♭	*I"Fagotto	*I"Clarinetto in B♭	*I"Clarinetto in B♭
*I'B.	*	*I'T.	*	*I'A.	*	*I'C.	*	*I'C. in E♭	*I'C. in E♭	*I'Fag.	*I'Cl. in B♭	*I'Cl. in B♭
*clefF4	*	*clefC4	*	*clefC3	*	*clefC1	*	*clefG2	*clefG2	*clefF4	*clefG2	*clefG2
*	*	*	*	*	*	*	*	*ITrd5c9	*ITrd5c9	*	*ITrd1c2	*ITrd1c2
*k[b-e-a-]	*	*k[b-e-a-]	*	*k[b-e-a-]	*	*k[b-e-a-]	*	*k[b-e-a-]	*k[b-e-a-]	*k[b-e-a-]	*k[b-e-a-]	*k[b-e-a-]
*E-:	*	*E-:	*	*E-:	*	*E-:	*	*E-:	*E-:	*E-:	*E-:	*E-:
*M3/4	*	*M3/4	*	*M3/4	*	*M3/4	*	*M3/4	*M3/4	*M3/4	*M3/4	*M3/4
=1	=1	=1	=1	=1	=1	=1	=1	=1	=1	=1	=1	=1
*2\right	*	*2\right	*	*2\right	*	*2\right	*	*2\right	*2\right	*2\right	*2\right	*2\right
!	!	!	!	!	!	!	!	!	!	!	!LO:TX:t=P:problem=all\right&colon; global	!
!	!	!LO:TX:a:Bi:t=andante	!	!	!	!	!	!LO:TX:a:Bi:t=Adagio.	!LO:TX:a:Bi:t=Andante	!LO:TX:a:Bi:t=andante	!	!
4E-\	Ple-	4B-\	Ple-	4g\	Ple-	4ee-\	Ple-	4e-\	4g\	4EE-/	4g/	4ee-\
4G\	ni	4B-\	ni	4g\	.	4b-\	.	4g\	4b-\	4GG/	4g/	4b-\
4B-\	sunt	4B-\	sunt	4g\	-ni	4b-\	-ni	4g\	4b-\	4BB-/	4g/	4b-\
=2	=2	=2	=2	=2	=2	=2	=2	=2	=2	=2	=2	=2
2.E-\	coe-	2.B-\	coe-	4.g\	sunt	4.b-\	sunt	2g\	2b-\	4E-\	4.g/	4.b-\
.	.	.	.	.	.	.	.	.	.	4EE-/	.	.
.	.	.	.	8f\L	coe-	8a-\L	coe-	.	.	.	8f/L	8a-\L
.	.	.	.	8e-\	.	8g\	.	8e-\L	8g\L	4r	8e-/	8g\
.	.	.	.	8f\J	.	8a-\J	.	8f\J	8a-\J	.	8f/J	8a-\J
=3	=3	=3	=3	=3	=3	=3	=3	=3	=3	=3	=3	=3
4E-\	-li	4B-\	-li	4g\	-li	4b-\	-li	2g\	2b-\	4E-\	4g/	4b-\
4r	.	4r	.	4r	.	4r	.	.	.	4G\	4b-\	4ee-\
4r	.	4r	.	4r	.	4r	.	4e-\	4g\	4E-\	4g\	4gg\
=4	=4	=4	=4	=4	=4	=4	=4	=4	=4	=4	=4	=4
.	.	.	.	.	.	.	.	.	.	.	.	8qqgg/
4r	.	4r	.	4r	.	4r	.	4B-/	4f\	4BB-/	4b-\	4ff\
4r	.	4r	.	4r	.	4r	.	4r	4r	4B-\	4r	8ee-\L
.	.	.	.	.	.	.	.	.	.	.	.	8dd\
4BB-/	et	4B-\	et	4d\	et	4b-\	et	4r	4r	4r	4d/	8cc\
.	.	.	.	.	.	.	.	.	.	.	.	8b-\J
=5	=5	=5	=5	=5	=5	=5	=5	=5	=5	=5	=5	=5
2.D\	ter-	2.B-\	ter-	2.f\	ter-	2.a-\	ter-	4B-/	4f\	4BB-/	8d/L	2.a-/
.	.	.	.	.	.	.	.	.	.	.	8f/	.
.	.	.	.	.	.	.	.	4B-/	4f\	4B-\	8d/	.
.	.	.	.	.	.	.	.	.	.	.	8f/	.
.	.	.	.	.	.	.	.	4B-/	4f\	4BB-/	8d/	.
.	.	.	.	.	.	.	.	.	.	.	8f/J	.
=6	=6	=6	=6	=6	=6	=6	=6	=6	=6	=6	=6	=6
!	!	!	!	!	!	!	!	!	!	!LO:TX:t=P:rep:problem	!	!
4E-\	-ra	4B-\	-ra	4e-\	-ra	4g\	-ra	4e-\	4g\	4E-\	4e-/	4g/
4r	.	4r	.	4r	.	4r	.	4g\	4b-\	4G\	4B-/	4ee-\
4r	.	4r	.	4r	.	4r	.	4e-\	4g\	4E-\	4G/	4gg\
=7	=7	=7	=7	=7	=7	=7	=7	=7	=7	=7	=7	=7
.	.	.	.	.	.	.	.	.	.	.	.	8qqgg/
4r	.	4r	.	4r	.	4r	.	4B-/	4f\	4BB-/	4F/	4ff\
.	.	.	.	.	.	.	.	.	.	.	.	8qqee-/
4r	.	4r	.	4r	.	4r	.	4r	4r	4B-\	4r	4dd\
.	.	.	.	.	.	.	.	.	.	.	.	8qqcc/
*	*ij	*	*	*	*ij	*	*ij	*	*	*	*	*
4BB-/	et	4B-\	et	4d\	et	4b-\	et	4r	4r	4r	4d/	4b-\
=8	=8	=8	=8	=8	=8	=8	=8	=8	=8	=8	=8	=8
2.D\	ter-	2.B-\	ter-	2f\	ter-	2.a-\	ter-	2.B-/	2.g\	4BB-/	8d/L	2.a-\
.	.	.	.	.	.	.	.	.	.	.	8f/	.
.	.	.	.	.	.	.	.	.	.	4B-\	8d/	.
.	.	.	.	.	.	.	.	.	.	.	8f/	.
!	!	!	!	!LO:TX:t=P:problem=w źródle brak caudy	!	!	!	!	!	!	!	!
.	.	.	.	4f\	.	.	.	.	.	4BB-/	8d/	.
.	.	.	.	.	.	.	.	.	.	.	8f/J	.
=9	=9	=9	=9	=9	=9	=9	=9	=9	=9	=9	=9	=9
2E-\	-ra	2B-\	-ra	4e-\	-ra	4g\	-ra	4e-\	4g\	4E-\	4e-/	4g\
*	*Xij	*	*	*	*Xij	*	*Xij	*	*	*	*	*
.	.	.	.	4r	.	4r	.	4G/	4e-\	4EE-/	4r	4r
4r	.	4r	.	4r	.	4r	.	4B-/	4f\	4BB-/	4r	4r
=10	=10	=10	=10	=10	=10	=10	=10	=10	=10	=10	=10	=10
2E-\	Glo-	2B-\	Glo-	2g\	Glo-	2b-\	Glo-	4e-\	4g\	4E-\	4g/	2b-\
.	.	.	.	.	.	.	.	4e-\	4g\	4E-\	4g/	.
4E-\	-ri-	4B-\	-ri-	4g\	-ri-	4b-\	-ri-	4e-\	4g\	4E-\	4g/	4b-\
=11	=11	=11	=11	=11	=11	=11	=11	=11	=11	=11	=11	=11
2.D\	-a	2.G/	-a	2.f\	-a	2.bn\	-a	2.G/	2.g\	4D\	4f/	2.bX\
.	.	.	.	.	.	.	.	.	.	4D\	4f/	.
.	.	.	.	.	.	.	.	.	.	4D\	4f/	.
=12	=12	=12	=12	=12	=12	=12	=12	=12	=12	=12	=12	=12
2D\	tu-	2.G/	tu-	2e-\	tu-	2cc\	tu-	4G/	4g\	4C/	4e-/	2cc\
.	.	.	.	.	.	.	.	4G/	4g\	4E-\	4g/	.
4E-\	.	.	.	4g\	.	8ee-\L	.	4e-\	4g\	4E-\	4g/	8ee-\L
.	.	.	.	.	.	8cc\J	.	.	.	.	.	8cc\J
=13	=13	=13	=13	=13	=13	=13	=13	=13	=13	=13	=13	=13
.	.	.	.	.	.	.	.	.	.	.	.	8qqb-/
2.F\	.	2.c\	.	2.f\	.	2.an\	.	4f\	4f\	4F\	2.c/	2a\
.	.	.	.	.	.	.	.	4f\	4f\	4FF/	.	.
.	.	.	.	.	.	.	.	4f\	4f\	4F\	.	4r
=14	=14	=14	=14	=14	=14	=14	=14	=14	=14	=14	=14	=14
4BB-/	-a	4d\	-a	4f\	-a	4b-\	-a	2B-/	2f\	4BB-/	4d/	4b-\
4r	.	4r	.	4r	.	4r	.	.	.	4B-\	4B-/	4dd\
4r	.	4r	.	4r	.	4r	.	4r	4r	4BB-/	4d/	4ff\
=15	=15	=15	=15	=15	=15	=15	=15	=15	=15	=15	=15	=15
4F\	Glo-	2c\	Glo-	2f\	Glo-	2ee-\	Glo-	2.f\	2.f\	4F\	8F/L	(4ff\
.	.	.	.	.	.	.	.	.	.	.	8c/	.
4An\	.	.	.	.	.	.	.	.	.	4An\	8A/	4ee-\)
.	.	.	.	.	.	.	.	.	.	.	8c/	.
4F\	ri-	4c\	-ri-	4f\	-ri-	4ee-\	-ri-	.	.	4F\	8A/	4ee-`\
.	.	.	.	.	.	.	.	.	.	.	8c/J	.
=16	=16	=16	=16	=16	=16	=16	=16	=16	=16	=16	=16	=16
4B-\	.	2B-\	-a	2f\	-a	(4ee-\	-a	2.B-/	2.f\	4B-\	8F/L	4ee-\
.	.	.	.	.	.	.	.	.	.	.	8d/	.
4BB-/	-a	.	.	.	.	4dd\)	.	.	.	4BB-/	8B-/	4dd\
.	.	.	.	.	.	.	.	.	.	.	8d/	.
4r	.	4r	.	4r	.	4r	.	.	.	4B-\	8B-/	4gg\
.	.	.	.	.	.	.	.	.	.	.	8d/J	.
=17	=17	=17	=17	=17	=17	=17	=17	=17	=17	=17	=17	=17
4F\	tu-	2.c\	tu-	2.f\	tu-	2.ee-\	tu-	2.f\	2.f\	4c\	8A/L	4ff\
.	.	.	.	.	.	.	.	.	.	.	8c/	.
4An\	.	.	.	.	.	.	.	.	.	4An\	8A/	4ee-\
.	.	.	.	.	.	.	.	.	.	.	8c/	.
4F\	.	.	.	.	.	.	.	.	.	4F\	8A/	4ee-\
.	.	.	.	.	.	.	.	.	.	.	8c/J	.
=18	=18	=18	=18	=18	=18	=18	=18	=18	=18	=18	=18	=18
4B-\	-a	4B-\	-a	4f\	-a	4dd\	-a	4B-/	4f\	4B-\	4B-/	4dd\
4r	.	4r	.	4r	.	4r	.	4r	4r	4r	4B-/	8dd\L
.	.	.	.	.	.	.	.	.	.	.	.	8b-\
4r	.	4r	.	4r	.	4r	.	4r	4r	4r	4B-/	8ee-\
.	.	.	.	.	.	.	.	.	.	.	.	8cc\J
=19	=19	=19	=19	=19	=19	=19	=19	=19	=19	=19	=19	=19
!LO:TX:a:t=1	!	!	!	!LO:TX:a:t=1	!	!LO:TX:a:t=1	!	!LO:TX:a:t=1.	!LO:TX:a:t=1.	!LO:TX:a:t=1	!	!
2.r	.	2.r	.	2.r	.	2.r	.	2.r	2.r	2.r	4d/	8ff\L
.	.	.	.	.	.	.	.	.	.	.	.	8dd\J
.	.	.	.	.	.	.	.	.	.	.	4e-/	8gg\L
.	.	.	.	.	.	.	.	.	.	.	.	8ee-\J
.	.	.	.	.	.	.	.	.	.	.	4c/	8aa\L
.	.	.	.	.	.	.	.	.	.	.	.	8ff\J
=20	=20	=20	=20	=20	=20	=20	=20	=20	=20	=20	=20	=20
2G\	O-	2.c\	Glo-	2.b-\	Glo-	4r	.	4r	4r	4r	4d/	4bb-\
.	.	.	.	.	.	4een\	Glo-	4G/	4g\	4G\	4B-/	4eeX\
4G\	-san-	.	.	.	.	4ee\	-ri-	4G/	4g\	4G\	4B-/	4ee\
=21	=21	=21	=21	=21	=21	=21	=21	=21	=21	=21	=21	=21
!	!	!	!	!	!	!	!	!	!	!	!	!LO:SIC:v:s=2.ee\
2.G\	-na	2c\	-ri-	2b-\	-ri-	2.een\	-a	2.G/	2.g\	4G\	8G/L	2.ee-\
.	.	.	.	.	.	.	.	.	.	.	8B-/	.
.	.	.	.	.	.	.	.	.	.	4GG/	8c/	.
.	.	.	.	.	.	.	.	.	.	.	8B-/	.
.	.	4c\	-a	4b-\	-a	.	.	.	.	4G\	8c/	.
.	.	.	.	.	.	.	.	.	.	.	8B-/J	.
=22	=22	=22	=22	=22	=22	=22	=22	=22	=22	=22	=22	=22
2An\	in	2.c\	tu-	2.f\	tu-	2.ee-X\	tu-	4r	4f\	4F\	4A-/	4ccc\
.	.	.	.	.	.	.	.	4f\	4f\	4An\	4c/	4ee-\
4A\	ex-	.	.	.	.	.	.	4f\	4f\	4A\	4c/	4ee-\
=23	=23	=23	=23	=23	=23	=23	=23	=23	=23	=23	=23	=23
2.A-\	-cel-	2.c\	.	2.f\	.	2.ee-\	.	2.f\	2.f\	4A-\	8A-/L	2.ee-\
.	.	.	.	.	.	.	.	.	.	.	8c/	.
.	.	.	.	.	.	.	.	.	.	4F\	8A-/	.
.	.	.	.	.	.	.	.	.	.	.	8c/	.
.	.	.	.	.	.	.	.	.	.	4A-\	8A-/	.
.	.	.	.	.	.	.	.	.	.	.	8c/J	.
=24	=24	=24	=24	=24	=24	=24	=24	=24	=24	=24	=24	=24
4B-\	-sis	4B-\	-a	4f\	-a	4dd\	-a	2B-/	2f\	4BB-/	2.B-/	4dd\
4r	.	4r	.	4r	.	4r	.	.	.	4C/	.	4ee-\
4r	.	4r	.	4r	.	4r	.	4r	4r	4D\	.	4ff\
=25	=25	=25	=25	=25	=25	=25	=25	=25	=25	=25	=25	=25
*	*	*	*	*	*ij	*	*	*	*	*	*	*
2E-\	in	2B-\	Glo-	2b-\	Glo-	2gg\	Glo-	2.f\	2.g\	2E-\	4B-/	4gg\
.	.	.	.	.	.	.	.	.	.	.	4g\	4ee-\
4E-\	ex-	4c\	-ri-	4b-\	-ri-	4ee-\	-ri-	.	.	4r	4e-/	4cc\
=26	=26	=26	=26	=26	=26	=26	=26	=26	=26	=26	=26	=26
2.F\	-cel-	2.B-\	-a	2.f\	-a	2.dd\	-a	2f\	2f\	2F\	4d/	4ff\
.	.	.	.	.	.	.	.	.	.	.	4f/	4dd\
.	.	.	.	.	.	.	.	4r	4r	4r	4d/	4b-\
=27	=27	=27	=27	=27	=27	=27	=27	=27	=27	=27	=27	=27
!LO:TX:b:t=Cito verte	!	!	!	!	!	!	!	!	!	!	!	!
2.F\	-sis	2.An\	tu-	2.f\	tu-	2.cc\	tu-	2f\	2f\	2FF/	4c/	4ee-\
.	.	.	.	.	.	.	.	.	.	.	4e-/	4cc\
.	.	.	.	.	.	.	.	4r	4r	4r	4c/	4a\
=28	=28	=28	=28	=28	=28	=28	=28	=28	=28	=28	=28	=28
2BB-/	.	2B-\	-a	2f\	-a	2b-\	-a	4B-/	2f\	4BB-/	2e-/	2b-\
.	.	.	.	.	.	.	.	4B-/	.	4F\	.	.
*	*	*	*	*	*Xij	*	*	*	*	*	*	*
4r	.	4r	.	4r	.	4r	.	4B-/	4f\	4D\	4r	4r
=29	=29	=29	=29	=29	=29	=29	=29	=29	=29	=29	=29	=29
!	!	!	!	!	!	!	!	!	!	!	!LO:TX:a:t=1	!
4r	.	4r	.	4r	.	4r	.	4B-/	4f\	2BB-/	2.r	4r
4r	.	4r	.	4r	.	4r	.	4r	4r	.	.	4r
4BB-/	O-	4F/	o-	4d\	o-	4b-\	o-	4r	4r	4r	.	4b-\
=30	=30	=30	=30	=30	=30	=30	=30	=30	=30	=30	=30	=30
!	!	!	!	!	!	!	!	!LO:TX:a:t=7.	!LO:TX:a:t=7	!	!	!
2.C/	-san-	2.F/	-san-	2.e-\	-san-	2.an\	-san-	0.r	0.r	2C/	2.e-/	4ee-\
.	.	.	.	.	.	.	.	.	.	.	.	4cc\
.	.	.	.	.	.	.	.	.	.	4r	.	4a\
=31	=31	=31	=31	=31	=31	=31	=31	=31	=31	=31	=31	=31
2.D\	.	2.B-\	.	2.f\	-na	2.a-X\	-na	.	.	2D/	2.f/	4ff\
.	.	.	.	.	.	.	.	.	.	.	.	4dd\
.	.	.	.	.	.	.	.	.	.	4r	.	4a-X\
=32	=32	=32	=32	=32	=32	=32	=32	=32	=32	=32	=32	=32
2E-\	-na	2B-\	-na	2e-\	in	4g\	in	.	.	2E-\	4B-/	4g/
.	.	.	.	.	.	4ee-\	.	.	.	.	4r	4ee-\
4r	.	4r	.	4e-\	ex-	4b-\	ex-	.	.	4r	4r	4b-\
=33	=33	=33	=33	=33	=33	=33	=33	=33	=33	=33	=33	=33
4r	.	4r	.	2e-\	-cel-	2cc\	-cel-	.	.	4r	2f/	4cc\
4r	.	4r	.	.	.	.	.	.	.	4r	.	4aa-\
4A-\	in	4c\	in	4a-\	-sis	4ff\	-sis	.	.	4A-\	4r	4ff\
=34	=34	=34	=34	=34	=34	=34	=34	=34	=34	=34	=34	=34
4B-\	ex-	2B-\	ex-	2.f\	in	4ee-\	in	1.r	1.r	4B-\	2b-\	4ee-\
4BB-/	.	.	.	.	.	4dd\	.	.	.	4BB-/	.	4dd\
4C/	-cel-	4An\	-cel-	.	.	4ee-\	ex-	.	.	4C/	4a\	4ee-\
=35	=35	=35	=35	=35	=35	=35	=35	=35	=35	=35	=35	=35
2D\	.	2B-\	.	2f\	ex-	2ff\	-cel-	.	.	4D\	4b-\	4ff\
.	.	.	.	.	.	.	.	.	.	4BB-/	4f/	4a-X\
4BB-/	.	4B-\	.	4f\	.	4a-\	.	.	.	4D\	4f/	4a-\
=36	=36	=36	=36	=36	=36	=36	=36	=36	=36	=36	=36	=36
4E-\	.	4B-\	.	4e-\	-cel-	4g/	.	2.r	2.r	4E-\	4e-/	4g/
4BB-/	-sis	4B-\	-sis	4d\	-sis	4f/	-sis	.	.	8B-\L	4d/	4f/
.	.	.	.	.	.	.	.	.	.	8A-\	.	.
4r	.	4r	.	4r	.	4r	.	.	.	8G\	4r	4r
.	.	.	.	.	.	.	.	.	.	8F\J	.	.
=37	=37	=37	=37	=37	=37	=37	=37	=37	=37	=37	=37	=37
4r	.	4r	.	4r	.	4r	.	4e-\	4g\	4E-\	4g/	4ee-\
4r	.	4r	.	4r	.	4r	.	4g\	4b-\	4G\	4g/	4b-\
4E-\	O-	4B-\	in	4g\	o-	4b-\	O-	4g\	4b-\	4B-\	4g/	4b-\
=38	=38	=38	=38	=38	=38	=38	=38	=38	=38	=38	=38	=38
2.E-\	-san-	2.B-\	excel-	4.g\	-san-	4.b-\	-san-	2g\	2b-\	4E-\	4.g/	4.b-\
.	.	.	.	.	.	.	.	.	.	4EE-/	.	.
.	.	.	.	8f\L	.	8a-\L	.	.	.	.	8f/L	8a-\L
.	.	.	.	8e-\	.	8g\	.	8e-\L	8g\L	4r	8e-/	8g\
.	.	.	.	8f\J	.	8a-\J	.	8f\J	8a-\J	.	8f/J	8a-\J
=39	=39	=39	=39	=39	=39	=39	=39	=39	=39	=39	=39	=39
4E-\	-na	4B-\	-sis	4g\	-na	4b-\	-na	2g\	2b-\	4E-\	4g/	4b-\
4r	.	4r	.	4r	.	4r	.	.	.	4G\	4b-\	4ee-\
4r	.	4r	.	4r	.	4r	.	4e-\	4g\	4E-\	4g/	4gg\
=40	=40	=40	=40	=40	=40	=40	=40	=40	=40	=40	=40	=40
4r	.	4r	.	4r	.	4r	.	4B-/	4f\	4BB-/	4f/	8gg\L
.	.	.	.	.	.	.	.	.	.	.	.	8ff\J
4r	.	4r	.	4r	.	4r	.	4r	4r	4B-\	4r	8ee-\L
.	.	.	.	.	.	.	.	.	.	.	.	8dd\J
4BB-/	o-	4B-\	o-	4f\	o-	4b-\	O-	4r	4r	4r	4d/	8cc\L
.	.	.	.	.	.	.	.	.	.	.	.	8b-\J
=41	=41	=41	=41	=41	=41	=41	=41	=41	=41	=41	=41	=41
2.D\	-san-	2.B-\	-san-	2.f\	-san-	2.a-\	-san-	4B-/	4f\	4BB-/	8d/L	2.a-/
.	.	.	.	.	.	.	.	.	.	.	8f/	.
.	.	.	.	.	.	.	.	4B-/	4f\	4B-\	8d/	.
.	.	.	.	.	.	.	.	.	.	.	8f/	.
.	.	.	.	.	.	.	.	4B-/	4f\	4BB-/	8d/	.
.	.	.	.	.	.	.	.	.	.	.	8f/J	.
=42	=42	=42	=42	=42	=42	=42	=42	=42	=42	=42	=42	=42
!LO:TX:t=P:problem=skreślony tekst	!	!	!	!	!	!	!	!	!	!	!	!
4E-\	.	4B-\	.	4e-\	-na	4g\	-na	4e-\	4g\	4E-\	4B-/	4g/
4G\	.	4B-\	.	4b-\	in	4ee-\	in	4g\	4b-\	4G\	4b-\	4ee-\
!	!	!LO:TX:b:t=Cito verte	!	!	!	!	!	!	!	!	!	!
4E-\	-na	4B-\	-na	4b-\	ex-	4gg\	ex-	4e-\	4g\	4E-\	4g/	4gg\
=43	=43	=43	=43	=43	=43	=43	=43	=43	=43	=43	=43	=43
2.A-\	in	2.c\	in	2.a-\	-cel-	8gg\L	-cel-	4f\	4f\	4A-\	4cc\	8gg\L
.	.	.	.	.	.	8ff\J	.	.	.	.	.	8ff\J
.	.	.	.	.	.	8ee-\L	.	4r	4r	4r	4cc\	8eeX\L
.	.	.	.	.	.	8ff\J	.	.	.	.	.	8ff\J
.	.	.	.	.	.	8aa-\L	.	4f\	4f\	4A-\	8cc\L	8aa-\L
.	.	.	.	.	.	8ff\J	.	.	.	.	8a-\J	8ff\J
=44	=44	=44	=44	=44	=44	=44	=44	=44	=44	=44	=44	=44
2.B-\	ex-	2.B-\	ex-	2.g\	.	2.ee-\	.	2.e-\	2.g\	4B-\	4g/	2.ee-\
.	.	.	.	.	.	.	.	.	.	4B-\	4g/	.
.	.	.	.	.	.	.	.	.	.	4B-\	4g/	.
=45	=45	=45	=45	=45	=45	=45	=45	=45	=45	=45	=45	=45
2.BB-/	-cel-	2.B-\	-cel-	2.f\	.	2.dd\	.	2.B-/	2.f\	4BB-/	4f/	2.dd\
.	.	.	.	.	.	.	.	.	.	4BB-/	4f/	.
.	.	.	.	.	.	.	.	.	.	4BB-/	4f/	.
=46	=46	=46	=46	=46	=46	=46	=46	=46	=46	=46	=46	=46
2E-\	-sis	2B-\	-sis	2g\	-sis	2ee-\	-sis	4e-\	4g\	4E-\	4g/	4ee-\
.	.	.	.	.	.	.	.	4e-\	4g\	4BB-/	4G/	4e-/
4r	.	4r	.	4r	.	4r	.	4e-\	4g\	4GG/	4G/	4e-/
=47	=47	=47	=47	=47	=47	=47	=47	=47	=47	=47	=47	=47
!	!	!	!	!	!	!LO:TX:b:Bi:t=Sequ(itu) Benedictus	!	!	!	!	!	!
!LO:TX:a:t=1	!	!LO:TX:a:t=1	!	!LO:TX:a:t=1	!	!LO:TX:a:t=1	!	!	!	!	!	!
2.r	.	2.r	.	2.r	.	2.r	.	2e-\	2g\	2EE-/	2G;/	2e-/
.	.	.	.	.	.	.	.	4r	4r	4r	4r	4r
==	==	==	==	==	==	==	==	==	==	==	==	==
*-	*-	*-	*-	*-	*-	*-	*-	*-	*-	*-	*-	*-
!!title: @{OTL};
!!!RDF**kern: > = above
!!!RDF**kern: < = below
!!!RDF**kern: | = vertical stroke
!!!RDF**kern: N = linked
!!!RDF**kern: i = editorial accidental
!!!RDF**kern: l = terminal long
!!!ENC: Andrzej Gręziak
!!!END: 2020-09-19
!!!EED: Wojciech Jakubiak-Danek
!!!EEV: 2022-01-31
!!!URL-scan: http://repozytorium.nifc.pl/skany/pl-cz-nut--iii-555
!!!ONB-nifc: UWAGA: części Requiem: Requiem, Kyrie, Dies irae, Qui Mariam, Domine Jesu Christe, Sanctus, Pleni sunt, Benedictus, Agnus Dei, Lux aeterna
